icons/svg/eyedropper-variant.svg

<svg xmlns="http://www.w3.org/2000/svg" version="1.1" baseProfile="full" width="24" height="24" viewBox="0 0 24.00 24.00" xml:space="preserve"><path fill="#000" fill-opacity="1" stroke-linejoin="round" d="M6.92 19L5 17.08l8.06-8.06 1.92 1.92m5.73-5.31l-2.34-2.34c-.39-.39-1.02-.39-1.41 0l-3.12 3.12-1.93-1.91-1.41 1.41 1.42 1.42L3 16.25V21h4.75l8.92-8.92 1.42 1.42 1.41-1.41-1.92-1.92 3.12-3.12c.4-.4.4-1.03.01-1.42z"/></svg>

﻿<?xml version="1.0" encoding="utf-8"?>
<!DOCTYPE svg PUBLIC "-//W3C//DTD SVG 1.1//EN" "http://www.w3.org/Graphics/SVG/1.1/DTD/svg11.dtd">
<svg xmlns="http://www.w3.org/2000/svg" xmlns:xlink="http://www.w3.org/1999/xlink" version="1.1" baseProfile="full" width="24" height="24" viewBox="0 0 24.00 24.00" enable-background="new 0 0 24.00 24.00" xml:space="preserve">
	<path fill="#000000" fill-opacity="1" stroke-linejoin="round" d="M 6.92,19L 5,17.08L 13.06,9.02L 14.98,10.94M 20.71,5.63L 18.37,3.29C 17.98,2.9 17.35,2.9 16.96,3.29L 13.84,6.41L 11.91,4.5L 10.5,5.91L 11.92,7.33L 3,16.25L 3,21L 7.75,21L 16.67,12.08L 18.09,13.5L 19.5,12.09L 17.58,10.17L 20.7,7.05C 21.1,6.65 21.1,6.02 20.71,5.63 Z "/>
</svg>
